X: 3
T:Hole In The Boat
M:6/8
L:1/8
S:LNugent W-Gap Trk-1
R:Slow Jig
Z:Ed Wosika
K:EDor
  D| ~E3 FEE|   EGB efg|  edA (3Bcd B|   AFD FED|
    {D}~E3 FEE| EGB def|  edA (3Bcd B| AFD E2:|
 A| Bee efe|  dBc def| edA (3Bcd B| AFD FED|
   {D}~E3 FEE| EGB def|  edA (3Bcd B| AFD E2:|
